Origami/24x24/apps/musique.svg

<svg width="24" height="24" version="1" xmlns="http://www.w3.org/2000/svg">
 <g transform="matrix(.5 0 0 .5 .00017 1.5)" style="opacity:.2">
  <path d="m38.0578 4.1033393-20.231418 4.2133783c-3.540675 0.425971-3.826722 3.6829394-3.826382 3.6786264v14.270656c-0.653-0.173-1.325-0.262-2-0.266-4.4183 0-8 3.5817-8 8s3.5817 8 8 8c4.0287-0.0038 7.4261-3.0029 7.9297-7 0 0 0.07031-0.72732 0.07031-1v-20.07l16-3.458025v11.793682c-0.653-0.173-1.325-0.262-2-0.266-4.4183 0-8 3.5817-8 8s3.5817 8 8 8c4.0287-0.0038 7.4261-3.0029 7.9297-7l0.07-1v-22.70271s0.0273-3.9023963-3.94191-3.1936082z"/>
 </g>
 <g transform="matrix(.5 0 0 .5 .00017 1.0001714)" style="fill:#3c8cf8">
  <path d="m38.0578 4.1033393-20.231418 4.2133783c-3.540675 0.425971-3.826722 3.6829394-3.826382 3.6786264v14.270656c-0.653-0.173-1.325-0.262-2-0.266-4.4183 0-8 3.5817-8 8s3.5817 8 8 8c4.0287-0.0038 7.4261-3.0029 7.9297-7 0 0 0.07031-0.72732 0.07031-1v-20.07l16-3.458025v11.793682c-0.653-0.173-1.325-0.262-2-0.266-4.4183 0-8 3.5817-8 8s3.5817 8 8 8c4.0287-0.0038 7.4261-3.0029 7.9297-7l0.07-1v-22.70271s0.0273-3.9023963-3.94191-3.1936082z" style="fill:#3c8cf8"/>
 </g>
 <g transform="matrix(.5 0 0 .5 .00017 1.0001714)" style="fill:#ffffff;opacity:.2">
  <path transform="matrix(2,0,0,2,-3.4e-4,-2.0003428)" d="m19.683594 3.0195312c-0.18956-0.0194364-0.406221-0.0110961-0.654297 0.0332032l-10.115234 2.1054687c-1.7703375 0.2129855-1.9142325 1.8420003-1.9140625 1.8398438v0.5c-1.7e-4 0.0021565 0.143725-1.6268583 1.9140625-1.8398438l10.115234-2.1074219c1.984605-0.354394 1.970703 1.5976563 1.970703 1.5976563v-0.5s0.010511-1.4928511-1.316406-1.6289063zm-2.683594 8.9804688c-2.20915 0-4 1.79085-4 4 0 0.085583 0.020095 0.165752 0.025391 0.25 0.131401-2.090432 1.851042-3.75 3.974609-3.75 0.3375 2e-3 0.6735 0.046313 1 0.132812v-0.5c-0.3265-0.086499-0.6625-0.130812-1-0.132812zm-11 2c-2.20915 0-4 1.79085-4 4 0 0.085583 0.0200949 0.165752 0.0253906 0.25 0.1314009-2.090432 1.8510428-3.75 3.9746094-3.75 0.3375 2e-3 0.6735 0.046313 1 0.132812v-0.5c-0.3265-0.086499-0.6625-0.130812-1-0.132812z" style="fill:#ffffff"/>
 </g>
</svg>

<svg xmlns="http://www.w3.org/2000/svg" width="24" height="24" version="1">
 <g style="opacity:0.2" transform="matrix(0.5,0,0,0.5,1.7e-4,1.5)">
  <path d="M 38.0578,4.1033393 17.826382,8.3167176 C 14.285707,8.7426886 13.99966,11.999657 14,11.995344 V 26.266 C 13.347,26.093 12.675,26.004 12,26 c -4.4183,0 -8,3.5817 -8,8 0,4.4183 3.5817,8 8,8 4.0287,-0.0038 7.4261,-3.0029 7.9297,-7 0,0 0.07031,-0.72732 0.07031,-1 V 13.93 l 16,-3.458025 v 11.793682 c -0.653,-0.173 -1.325,-0.262 -2,-0.266 -4.4183,0 -8,3.5817 -8,8 0,4.4183 3.5817,8 8,8 4.0287,-0.0038 7.4261,-3.0029 7.9297,-7 l 0.07,-1 V 7.2969475 c 0,0 0.0273,-3.9023963 -3.94191,-3.1936082 z"/>
 </g>
 <g style="fill:#3c8cf8" transform="matrix(0.5,0,0,0.5,1.7e-4,1.0001714)">
  <path style="fill:#3c8cf8" d="M 38.0578,4.1033393 17.826382,8.3167176 C 14.285707,8.7426886 13.99966,11.999657 14,11.995344 V 26.266 C 13.347,26.093 12.675,26.004 12,26 c -4.4183,0 -8,3.5817 -8,8 0,4.4183 3.5817,8 8,8 4.0287,-0.0038 7.4261,-3.0029 7.9297,-7 0,0 0.07031,-0.72732 0.07031,-1 V 13.93 l 16,-3.458025 v 11.793682 c -0.653,-0.173 -1.325,-0.262 -2,-0.266 -4.4183,0 -8,3.5817 -8,8 0,4.4183 3.5817,8 8,8 4.0287,-0.0038 7.4261,-3.0029 7.9297,-7 l 0.07,-1 V 7.2969475 c 0,0 0.0273,-3.9023963 -3.94191,-3.1936082 z"/>
 </g>
 <g style="fill:#ffffff;opacity:0.2" transform="matrix(0.5,0,0,0.5,1.7e-4,1.0001714)">
  <path style="fill:#ffffff" d="M 19.683594 3.0195312 C 19.494034 3.0000948 19.277373 3.0084351 19.029297 3.0527344 L 8.9140625 5.1582031 C 7.143725 5.3711886 6.99983 7.0002034 7 6.9980469 L 7 7.4980469 C 6.99983 7.5002034 7.143725 5.8711886 8.9140625 5.6582031 L 19.029297 3.5507812 C 21.013902 3.1963872 21 5.1484375 21 5.1484375 L 21 4.6484375 C 21 4.6484375 21.010511 3.1555864 19.683594 3.0195312 z M 17 12 C 14.79085 12 13 13.79085 13 16 C 13 16.085583 13.020095 16.165752 13.025391 16.25 C 13.156792 14.159568 14.876433 12.5 17 12.5 C 17.3375 12.502 17.6735 12.546313 18 12.632812 L 18 12.132812 C 17.6735 12.046313 17.3375 12.002 17 12 z M 6 14 C 3.79085 14 2 15.79085 2 18 C 2 18.085583 2.0200949 18.165752 2.0253906 18.25 C 2.1567915 16.159568 3.8764334 14.5 6 14.5 C 6.3375 14.502 6.6735 14.546313 7 14.632812 L 7 14.132812 C 6.6735 14.046313 6.3375 14.002 6 14 z" transform="matrix(2,0,0,2,-3.4e-4,-2.0003428)"/>
 </g>
</svg>
